svgs/regular/square-share-nodes.svg

<svg xmlns="http://www.w3.org/2000/svg" viewBox="0 0 448 512"><!-- Font Awesome Pro 6.0.0-alpha2 by @fontawesome - https://fontawesome.com License - https://fontawesome.com/license (Commercial License) --><path d="M384 32H64C28.654 32 0 60.654 0 96V416C0 451.346 28.654 480 64 480H384C419.348 480 448 451.346 448 416V96C448 60.654 419.348 32 384 32ZM400 416C400 424.836 392.838 432 384 432H64C55.164 432 48 424.836 48 416V96C48 87.164 55.164 80 64 80H384C392.838 80 400 87.164 400 96V416ZM300.801 230.4C329.076 230.4 352 207.477 352 179.199S329.076 128 300.801 128C272.969 128 250.436 150.236 249.73 177.9L176.814 214.357C168.441 208.391 158.264 204.799 147.199 204.799C118.924 204.799 96 227.723 96 256S118.924 307.199 147.199 307.199C158.264 307.199 168.439 303.607 176.812 297.641L249.73 334.1C250.438 361.76 272.969 384 300.801 384C329.076 384 352 361.076 352 332.799C352 304.523 329.076 281.6 300.801 281.6C289.732 281.6 279.551 285.195 271.176 291.166L200.844 256L271.176 220.834C279.551 226.805 289.732 230.4 300.801 230.4Z"/></svg>

<svg xmlns="http://www.w3.org/2000/svg" viewBox="0 0 448 512"><!--! Font Awesome Pro 6.0.0-alpha3 by @fontawesome - https://fontawesome.com License - https://fontawesome.com/license (Commercial License) --><path d="M384 32H64C28.65 32 0 60.65 0 96v320c0 35.35 28.65 64 64 64h320c35.35 0 64-28.65 64-64V96C448 60.65 419.3 32 384 32zM400 416c0 8.836-7.162 16-16 16H64c-8.836 0-16-7.164-16-16V96c0-8.836 7.164-16 16-16h320c8.838 0 16 7.164 16 16V416zM300.8 230.4C329.1 230.4 352 207.5 352 179.2S329.1 128 300.8 128c-27.83 0-50.37 22.24-51.07 49.9L176.8 214.4C168.4 208.4 158.3 204.8 147.2 204.8C118.9 204.8 96 227.7 96 256s22.92 51.2 51.2 51.2c11.06 0 21.24-3.592 29.61-9.559l72.92 36.46C250.4 361.8 272.1 384 300.8 384C329.1 384 352 361.1 352 332.8c0-28.28-22.92-51.2-51.2-51.2c-11.07 0-21.25 3.596-29.62 9.566L200.8 256l70.33-35.17C279.6 226.8 289.7 230.4 300.8 230.4z"/></svg>
